X:9398
T:Le long de la rivire 2
R:Bourre  2 temps
C:trad
A:Centre
O:France
M:2/4
L:1/8
Q:1/4=130
K:G
A/2B/2|c3A|B2G2|A>G Ad|cB/2A/2 GA/2B/2|c3A|B2G2|A>G AB|G3:|
|:A|G3E|D2D2|A>G AB|G>G GA|G3E|D2D2|A>G AB|G3:||
